icons/desktop/16/svg/single-user-16.svg

<svg width="16" height="16" viewBox="0 0 16 16" fill="none" xmlns="http://www.w3.org/2000/svg">
<path fill-rule="evenodd" clip-rule="evenodd" d="M8 8.50195C9.17586 8.50195 10.2817 8.55934 11.3086 8.65332C12.8405 8.79331 13.9998 10.0998 14 11.6377V12.7627C14 13.7746 13.2402 14.6348 12.2354 14.7529C10.6774 14.9359 9.253 15.001 8 15.001C6.45208 15.001 5.02516 14.902 3.74121 14.75C2.74321 14.632 2 13.7706 2 12.7656V11.6396C2.00018 10.0888 3.18854 8.78843 4.73242 8.64844C5.91628 8.54046 7.01111 8.5 8 8.5V8.50195ZM8 9.99805C6.95807 9.99805 5.90412 10.0457 4.86719 10.1396C4.10029 10.2096 3.50016 10.8678 3.5 11.6377V12.7637C3.5 13.0167 3.67901 13.2298 3.91699 13.2578C5.26699 13.4178 6.641 13.499 8 13.499C9.35187 13.499 10.7177 13.4187 12.0596 13.2607C12.3066 13.2317 12.5 13.0117 12.5 12.7607V11.6357C12.4999 10.8679 11.9158 10.2125 11.1719 10.1445C10.3844 10.0725 9.58733 10.0271 8.79297 10.0088L8 9.99805Z" fill="black"/>
<path fill-rule="evenodd" clip-rule="evenodd" d="M8 1C9.726 1 11.125 2.399 11.125 4.125C11.125 5.851 9.726 7.25 8 7.25C6.274 7.25 4.875 5.851 4.875 4.125C4.875 2.399 6.274 1 8 1ZM8 2.5C7.104 2.5 6.375 3.229 6.375 4.125C6.375 5.021 7.104 5.75 8 5.75C8.896 5.75 9.625 5.021 9.625 4.125C9.625 3.229 8.896 2.5 8 2.5Z" fill="black"/>
</svg>

<!-- This Source Code Form is subject to the terms of the Mozilla Public
   - License, v. 2.0. If a copy of the MPL was not distributed with this
   - file, You can obtain one at http://mozilla.org/MPL/2.0/. -->
<svg xmlns="http://www.w3.org/2000/svg" width="16" height="16" fill="context-fill" fill-opacity="context-fill-opacity" viewBox="0 0 16 16">
    <path fill-rule="evenodd" d="M8 8.502c1.176 0 2.282.057 3.309.151 1.532.14 2.69 1.447 2.691 2.985v1.125c0 1.012-.76 1.872-1.765 1.99a36.3 36.3 0 0 1-8.494-.003C2.743 14.632 2 13.77 2 12.766V11.64a3.01 3.01 0 0 1 2.732-2.992A36 36 0 0 1 8 8.5zm0 1.496a35 35 0 0 0-3.133.142A1.515 1.515 0 0 0 3.5 11.638v1.126c0 .253.179.466.417.494a34.8 34.8 0 0 0 8.143.003.51.51 0 0 0 .44-.5v-1.125c0-.768-.584-1.423-1.328-1.491a35 35 0 0 0-2.379-.136zM8 1a3.125 3.125 0 1 1 0 6.25A3.125 3.125 0 0 1 8 1m0 1.5c-.896 0-1.625.729-1.625 1.625S7.104 5.75 8 5.75s1.625-.729 1.625-1.625S8.896 2.5 8 2.5" clip-rule="evenodd" />
</svg>
